X:1
T:Ein Tännlein grünet wo
T:Josef Rheinberger
T:Text: Eduard Mörike
T:Ein Tännlein grünet wo
T:Nr. 5 aus Fünf Lieder, Op. 31
T:CPDL - Creative Commons Attribution Non Commercial 3.0
T:CPDL - Creative Commons Attribution Non Commercial 3.0
T:CPDL - Creative Commons Attribution Non Commercial 3.0
T:CPDL - Creative Commons Attribution Non Commercial 3.0
C:Josef Rheinberger
Z:Eduard Mörike
Z:CPDL - Creative Commons Attribution Non Commercial 3.0
%%score [ 1 2 3 4 ]
L:1/8
Q:1/8=108
M:2/4
K:C
V:1 treble nm="Sopran"
V:2 treble nm="Alt"
V:3 treble-8 nm="Tenor"
V:4 bass nm="Bass"
V:1
!p!"^Einfach und ausdrucksvoll" A | ^GA c>B | A2 z!mf! e | ^d3!p! A | ^G2 B2 | z!<(! B B>B | %6
w: Ein|Tänn- lein grü- net|wo, wer|weiß, im|Wal- de;|ein Ro- sen-|
 A^G!<)! z!f! G | d>d cB |!>(! d2 c2!>)! |!f! c2 BA | B>A!>(! G2-!>)! |!p! G4- | G4 |!f! c2 BA | %14
w: strauch, _ wer|sagt, in wel- chem|Gar- ten?|Sie sind er-|le- sen schon,|_||denk' es, o|
 B>A!>(! G2-!>)! |!p! G4- | GG GG | (F E2) E |!<(! A>A A!<)!!f!f | e2 d2 | z!pp! d c_B | %21
w: See- * le,|_|* auf dei- nem|Grab _ zu|wur- zeln und zu|wach- sen,|auf dei- nem|
 (_B A2)!<(! A!<)! |[Q:1/4=50]"^rit." c>c!>(! c^G!>)! |!p! B2 A2 ||[Q:1/4=54]"^a tempo" z2 z!p! A | %25
w: Grab _ zu|wur- zeln und zu|wach- sen.|Zwei|
 GA _B>A | A2 G2 | z F2 G | F2 E2 | z!<(! E G_B!<)! |!f! d>c _B2 | z _B =Bf | e>d c2 | z4 | %34
w: schwar- ze Röss- lein|wei- den|auf der|Wie- se,|sie keh- ren|heim zur Stadt|in mun- tern|Sprün- * gen;||
!p! c2 =BA | B>A G2- | G4- | G4 |!mf! c2 BA | B>A!>(! G2-!>)! |!p! G4- | GG GG | (F!<(! E2) E | %43
w: sie wer- den|schritt- weis gehn|_||mit dei- ner|Lei- * che;|_|* viel- leicht noch|eh', _ noch|
 A>A!<)!!f! Af | e2 d2 | z!pp! d c_B | _B2 A2 |[Q:1/4=50]"^rit." c>c c^G | =B2 A2- | %49
w: eh' an ih- ren|Hu- fen|das Ei- sen|los wird,|das ich blit- zen|se- he!|
 A2 !fermata!z2 |] %50
w: _|
V:2
!p! E | EE E>E | E2 z!mf! E | F3!p! F | E2 E2 | z!<(! E E>E | F2!<)! z!f! F | ^G>G GG | %8
w: ||||||||
!>(! ^G2 A2!>)! | z4 | z4 |!p!"^marc." E2 DB, | D>C C2- | C2 z2 | z4 |!p! E2 DB, | D2 C2 | %17
w: |||Sie sind er-|le- sen schon,|_||denk' es, o|See- le,|
 z C C^C |!<(! (^C D2)!<)!!f! A | G2 F2 | z!pp! F FF | E3!<(! E!<)! | E>E!>(! EE!>)! |!p! E2 E2 || %24
w: auf dei- nem|Grab _ zu|wach- sen,|auf dei- nem|Grab zu|wur- zeln und zu|wach- sen.|
 z2 z!p! F | FF F>F | E2 E2 | z D2 D | C2 C2 | z!<(! C EG!<)! |!f! _B>A G2 | z G F/G/ A/=B/ | %32
w: |||||||in mun- * tern _|
 c2 E2 | z4 | z4 | z4 |!p! E2 DB, | D>C C2- | C2 z2 | z4 |!p! E2 DB, | D2 C2 | z!<(! C C^C | %43
w: Sprün- gen;||||sie wer- den|schritt- weis gehn|_||mit dei- ner|Lei- che;|viel- leicht noch|
 ^CD!<)!!f! DA | G2 F2 | z!pp! F FF | E2 E2 | E>E EE | E2 E2- | E2 !fermata!z2 |] %50
w: |||||||
V:3
!p! c | Bc e>d | c2 z!mf! c | c3!p! c | B2 ^G2 | z!<(! ^G G>G | B2!<)! z!f! B/d/ | f>f ed | %8
w: Ein|Tänn- lein grü- net|wo, wer|weiß, im|Wal- de;|ein Ro- sen-|strauch, wer _|sagt, in wel- chem|
!>(! B2 c2!>)! |!f! c2 cc | c>c c2 |!p! G2 F^D | F>E E2 |!f! c4- | c2 c2 |!p! G2 F^D | F2 E2 | %17
w: Gar- ten?|Sie sind er-|le- sen schon,|sie sind er-|le- sen schon,|denk'|_ es,|denk' es, o|See- le,|
 z _B BB |!<(! A3!<)!!f! d | ^c2 d2 | z!pp! f =ed | c3!<(! c!<)! | ^G>G!>(! GB!>)! |!p! d2 c2 || %24
w: |||||||
 z2 z!p! c | _Bc d>c | _B2 B2 | z A2 _B | AG G2 | z!<(! c cc!<)! |!f! c>c c2 | z c cc | c2 G2 | %33
w: Zwei|schwar- ze Röss- lein|wei- den|auf der|Wie- * se,|sie keh- ren|heim zur Stadt|in mun- tern|Sprün- gen;|
 z4 |!p! c2 cc | c>c c2 | G2 F^D | F>E E2 |!mf! c2 cc | c2 c2 |!p! G2 F^D | F2 E2 | z!<(! _B BB | %43
w: |sie wer- den|schritt- weis gehn,|sie wer- den|schritt- weis gehn|mit dei- ner|Lei- che,|mit dei- ner|Lei- che;|viel- leicht noch|
 A>A!<)!!f! Ad | ^c2 d2 | z!pp! f =ed | =c2 c2 | ^G>G G=B | d2 c2- | c2 !fermata!z2 |] %50
w: eh' an ih- ren|Hu- fen|das Ei- sen|los wird,|das ich blit- zen|se- he!|_|
V:4
!p! A, | A,A, A,>A, | A,2 z!mf! A, | A,3!p! A, | E,2 E,2 | z!<(! E, E,>E, | D,2!<)! z!f! D, | %7
w: |||||||
 B,,>B,, E,E, |!>(! A,,2 A,,2!>)! |!f! A,2 G,F, | G,>F, E,2 |!p! G,,2 G,,G,, | C,>C, C,2 | %13
w: ||||||
!f! A,2 G,F, | G,>F, E,2 |!p! G,,2 G,,G,, | C,2 C,2 | z G, G,G, |!<(! (G, F,2)!<)!!f! D, | %19
w: denk' es, o|See- * le,|||||
 A,,2 _B,,2 | z!pp! _B,, C,D, | E,3!<(! E,!<)! | E,>E,!>(! E,E,!>)! |!p! A,,2 A,,2 || z2 z!p! F, | %25
w: ||||||
 F,F, F,>F, | C,2 C,2 | z D,2 G,, | C,2 C,2 | z!<(! C _B,/A,/ G,/F,/!<)! |!f! E,>E, E,2 | %31
w: ||||||
 z E, D,D, | C,2 C,2 | z4 |!p! A,2 G,F, | G,>F, E,2 | G,,2 G,,G,, | C,>C, C,2 |!mf! A,2 G,F, | %39
w: ||||||||
 G,>F, E,2 |!p! G,,2 G,,G,, | C,2 C,2 | z!<(! G, G,G, | G,F,!<)!!f! F,D, | A,,2 _B,,2 | %45
w: ||||||
 z!pp! _B,, C,D, | E,2 E,2 | E,>E, E,E, | A,,2 A,,2- |"^7. 10. 1869" A,,2 !fermata!z2 |] %50
w: |||||

